src/images/svg/jump-indices/jump-indices-24-7-trading.svg

<svg width="84" height="84" viewBox="0 0 84 84" fill="none" xmlns="http://www.w3.org/2000/svg">
<rect opacity="0.01" x="2" y="2" width="80" height="80" fill="white" stroke="#979797" stroke-width="2.5"/>
<path fill-rule="evenodd" clip-rule="evenodd" d="M28.178 16.6929L2 28.1459V49.6072C2 61.1484 8.66449 71.7753 19.391 77.3361L28.178 81.8912L36.9649 77.3361C47.6898 71.7753 54.3543 61.1484 54.3543 49.6072V28.1459L28.178 16.6929Z" fill="#85ACAF"/>
<path fill-rule="evenodd" clip-rule="evenodd" d="M43.9073 55.0935H41.2771V58.8714H37.7783V55.0935H28.7383V51.9604L36.7138 39.3384H41.2771V49.5718H37.7783V42.9204H37.7081L31.8877 52.238H36.5783H37.7783H41.2771H42.082H43.9073V55.0935Z" fill="white"/>
<path fill-rule="evenodd" clip-rule="evenodd" d="M26.5537 58.8709H12.7855V55.457L19.0533 50.1117C20.0998 49.2153 20.8737 48.4006 21.3766 47.6627C21.8811 46.9264 22.1341 46.1378 22.1341 45.2986V45.0178C22.1341 44.0855 21.8713 43.377 21.3504 42.8904C20.8264 42.4055 20.0998 42.1639 19.166 42.1639C18.1406 42.1639 17.357 42.4431 16.8149 43.0031C16.2729 43.5631 15.8811 44.2521 15.6411 45.0733L12.4492 43.87C12.6533 43.2366 12.9488 42.626 13.3309 42.0382C13.7129 41.4504 14.1896 40.9329 14.7578 40.4855C15.3276 40.0366 16.0051 39.6774 16.7888 39.4064C17.5725 39.137 18.4655 39.0015 19.4762 39.0015C20.5194 39.0015 21.4484 39.1451 22.2582 39.4358C23.0713 39.7247 23.757 40.1247 24.3153 40.639C24.8753 41.1517 25.2998 41.7623 25.5888 42.4709C25.8778 43.1811 26.0231 43.9549 26.0231 44.7941C26.0231 45.5974 25.899 46.3337 25.6443 47.0047C25.3929 47.6774 25.0435 48.3158 24.5945 48.9215C24.1488 49.5288 23.6215 50.1117 23.0157 50.6717C22.41 51.2317 21.7504 51.7917 21.0435 52.35L16.7888 55.7933H26.5537V58.8709Z" fill="white"/>
<g style="mix-blend-mode:multiply">
<path fill-rule="evenodd" clip-rule="evenodd" d="M80.3683 42.8402H74.3373C74.3373 24.5464 59.454 9.66473 41.1602 9.66473V3.63208C62.7797 3.63208 80.3683 21.2207 80.3683 42.8402Z" fill="#FF444F"/>
</g>
<g style="mix-blend-mode:multiply">
<path fill-rule="evenodd" clip-rule="evenodd" d="M69.0459 42.8402H63.0149C63.0149 30.7896 53.2091 20.9839 41.1602 20.9839V14.9529C56.5381 14.9529 69.0459 27.4639 69.0459 42.8402Z" fill="#FF444F"/>
</g>
<g style="mix-blend-mode:multiply">
<path fill-rule="evenodd" clip-rule="evenodd" d="M57.1324 42.8401H51.1014C51.1014 37.3576 46.641 32.8989 41.1602 32.8989V26.8662C49.9651 26.8662 57.1324 34.0319 57.1324 42.8401Z" fill="#FF444F"/>
</g>
</svg>

<svg width="84" height="84" fill="none" xmlns="http://www.w3.org/2000/svg"><path opacity=".01" fill="#fff" stroke="#979797" stroke-width="2.5" d="M2 2h80v80H2z"/><path fill-rule="evenodd" clip-rule="evenodd" d="M28.178 16.693 2 28.146v21.461c0 11.541 6.664 22.168 17.391 27.73l8.787 4.554 8.787-4.555c10.725-5.56 17.39-16.188 17.39-27.729V28.146L28.177 16.693z" fill="#85ACAF"/><path fill-rule="evenodd" clip-rule="evenodd" d="M43.907 55.093h-2.63v3.778h-3.499v-3.778h-9.04V51.96l7.976-12.622h4.563v10.234h-3.499V42.92h-.07l-5.82 9.318h12.019v2.855zM26.554 58.87H12.786v-3.413l6.267-5.345c1.047-.897 1.82-1.711 2.324-2.45.504-.736.757-1.524.757-2.363v-.281c0-.932-.263-1.641-.784-2.128-.524-.484-1.25-.726-2.184-.726-1.025 0-1.809.28-2.351.84-.542.56-.934 1.248-1.174 2.07L12.45 43.87c.204-.633.5-1.244.882-1.832a6.43 6.43 0 0 1 1.427-1.552c.57-.45 1.247-.809 2.03-1.08.785-.269 1.677-.404 2.688-.404 1.043 0 1.972.143 2.782.434.813.289 1.499.689 2.057 1.203.56.513.985 1.123 1.274 1.832.289.71.434 1.484.434 2.323 0 .803-.124 1.54-.379 2.21a7.785 7.785 0 0 1-1.05 1.918c-.445.607-.973 1.19-1.578 1.75a33.42 33.42 0 0 1-1.972 1.678l-4.255 3.443h9.765v3.078z" fill="#fff"/><path fill-rule="evenodd" clip-rule="evenodd" d="M80.368 42.84h-6.03c0-18.294-14.884-33.175-33.178-33.175V3.632c21.62 0 39.208 17.589 39.208 39.208z" fill="#FF444F"/><path fill-rule="evenodd" clip-rule="evenodd" d="M69.046 42.84h-6.031c0-12.05-9.806-21.856-21.855-21.856v-6.031c15.378 0 27.886 12.51 27.886 27.887z" fill="#FF444F"/><path fill-rule="evenodd" clip-rule="evenodd" d="M57.132 42.84h-6.03c0-5.482-4.461-9.941-9.942-9.941v-6.033c8.805 0 15.972 7.166 15.972 15.974z" fill="#FF444F"/></svg>
